X:350
T:Reel 350
M:4/4
K:Dmaj
L:1/8
dB|ADFD BDFA|Bced cABc|d>D (3DDD FDAF|Bcde fde2|ADDF FDFA|gfed Bdd2|fdec dcBA|Bdce d2d2|fedc dAFA|BdAF E2EG|FAdc BAFA|GEFD E2FA|Bdec dcBA|Bdce dBAF|FEFG FAAc|dcec d2|
